X:217
T:Built on the Rock
%%stretchlast false
M:3/4
L:1/4
K:C clef=C1
"^vi"[A,CA] "^IV¹"[A,FA] "^V/vi¹"[^G,EBe] | "^vi"[A,EAc]2 [G,EA] | "^IV"[F,FAc]2 "^ii¹"[F,A,Ad] | "^V/vi"[E,B,^Ge]3 | "^vi¹"[CEAe] "^VII7"[B,^DA^f] "^iii"[E,B,Gg] | "^I¹"[E,CGe] "^IV"[F,A,Ac] "^ii"[D,FAd] | "^vi"[E,EAB] "^III"[E,E^GB] "^III7"[E,D^GB] | "^vi"[A,CA]3 | "^IV"[F,CA] "^ii"[D,DFA] "^vi¹"[C,EAe] | "^I¹"[E,Gc]2 "^IV"[F,CFA] | "^vi"[A,CEc]2 "^V"[G,B,Gd] | "^I"[CGe]3 | [CEGe] "^II7³"[CDA^f] "^V¹"[B,DGg] | "^I"[CEGe] "^vi"[A,EAc] "^ii¹"[F,FAd] | "^viiø7¹"[D,FAB] "^III7³"[D,E^GB] "^III7"[E,D^GB] | "^vi"[A,CA]3 | [A,Eca] "^iii²"[B,EBg] "^V/iii"[B,^DB^f] | "^iii"[E,EBg]2 "^I"[C,Gce] | "^I²"[G,Gce]2 "^V7"[G,FBd] | "^I"[CEc]3 | "^III7³"[D^GBe] "^vi¹"[CAea] "^vi°7"[A,^F^dc'] | "^iii¹"[G,Beb]2 "^♭v°¹"[A,c^fa] | "^iii²"[B,Beg]2 "^VII7"[B,A^d^f] | "^iii"[E,Ge]3 | "^III7³"[D^GBe] "^vi¹"[CAe] "^III7²"[B,E^Gd] | "^vi"[A,EAc] "^ii¹"[F,DAd] "^ii7"[D,FAc] | "^vi"[E,B,AB] [E,DAB] "^III7"[E,D^GB] | "^vi"[A,CA]3 |]
